X: 30403
M: 2/4
L: 1/8
K: Bb
(d/c/) |\
e) A/(B/ c) G/F/ | =EFBd | ff/f/ fe/c/ | ABB :|
|: ({g}f/=e/) |\
ff/f/ ba | (gf).d.f | f(e/d/) eg | gcc (d/e/) |\
ff/f/ ba | (gf).d.f | cf=eg | baf :|


